X:156
T:Old Polka, The
R:Polka
O:Scotland
M:2/4
A:Orkney
K:D
F>A |\
B2A2 A>fe>d | c2B2 B2e>d | \
c>de>f g>eB>c | d>ef>d A2F>A | \
B2A2 A>fe>d | c2B2 B2e>d |
c>de>f g>eB>c | d2d2 d2 :: f>g |\
a>fd>f A>fd>f | a2g>f g2e>f |
g>ec>e A>ec>e | g2f>e f2f>g |\
a>fd>f A>fd>f | a2g2 B2e>d | \
c>de>f g>eB>c | d2f2 d2:|
